X: 11
T: Lilting Fisherman, The
Z: UPipes & harp
S: https://thesession.org/tunes/345#setting48911
R: reel
M: 4/4
L: 1/8
K: Cmaj
|:G3 E GAcd|edcB cA A2|GE ~E2 GAcd|1 . edcB c3 A:|2 . edcB c3 d||
|:eg ~g2 agea|gede cA A2|eg ~g2 ea ~a2|gabg a3 g|
eg ~g2 agea|gede cA A2|GE ~E2 GAcd|1 . edcB c3 d:|2 . edcB c3 A||

